X:1
T:Title
%%score { ( 1 3 ) | 2 }
L:1/8
M:4/4
K:A
V:1 treble nm="Grand Piano"
V:3 treble 
V:2 bass 
V:1
 z4 z2[Q:1/4=100] [CE]2 | [Ec]2 [Ec]2 [Ec]2 [^EB]2 | [FA]2 [DF]2 [FA]3 [DF] | %3
 [CE]>[CE] [CE]>[CE] [EA]2 [Ec]2 |[M:3/4] [EB]6 |[M:1/4] [DE]2 |[M:4/4] [Cc]2 [Ec]2 [Ec]2 [^EB]2 | %7
 [FA]2 [DF]2 [FA]3 [DF] | [CE]>[CE] [EA]>[FB] [Ec]2 [DB]2 |[M:2/4] [CA]4 | [=Gc]4 | %11
[M:4/4] [Fd]>[Fd] [Fd]>[Fd] [Fd]2 [FA]>[^EB] | [Ec]2 [Ec]2 [Ec]3 [CA] | B2 B2 B3 B | z4 c4 | %15
 [Fd]>[Fd] [Fd]>[Fd] [Fd]2 [FA]>[^EB] | [Ec]2 [Ec]2 [Ec]3 [CA] | B>B A>[FB] [Ec]2 [DB]2 | %18
[M:3/4] [CA]6 |] %19
V:2
 z4 z2 [A,,A,]2 | [A,,A,]2 [A,,A,]2 [A,,A,]2 [C,G,]2 | [D,F,]2 [D,A,]2 [D,D]3 [D,A,] | %3
 [A,,A,]>[A,,A,] [A,,A,]>[A,,A,] [C,A,]2 [A,,A,]2 |[M:3/4] [E,G,]6 |[M:1/4] [E,G,]2 | %6
[M:4/4] [A,,A,]2 [A,,A,]2 [A,,A,]2 [C,G,]2 | [D,F,]2 [D,A,]2 [D,D]3 [D,A,] | %8
 [A,,A,]>[A,,A,] [C,A,]>[D,A,] [E,A,]2 [E,G,]2 |[M:2/4] [A,,A,]4 | [A,,A,]4 | %11
[M:4/4] [D,A,]>[D,A,] [D,A,]>[D,A,] [D,A,]2 [D,A,]>[D,A,] | [A,,A,]2 [A,,A,]2 [A,,A,]3 [A,,A,] | %13
 [E,G,D]2 [E,G,D]2 [E,G,D]3 [E,G,D] | [A,,A,]2 [A,,A,]2 [A,,A,]4 | %15
 [D,A,]>[D,A,] [D,A,]>[D,A,] [D,A,]2 [D,A,]>[D,A,] | [A,,A,]2 [A,,A,]2 [A,,A,]3 [A,,A,] | %17
 [E,G,D]>[E,G,D] [F,A,C]>[D,A,] [E,A,]2 [E,G,]2 |[M:3/4] [A,,A,]6 |] %19
V:3
 x8 | x8 | x8 | x8 |[M:3/4] x6 |[M:1/4] x2 |[M:4/4] x8 | x8 | x8 |[M:2/4] x4 | x4 |[M:4/4] x8 | %12
 x8 | x8 | [CA]2 [Ec]2 E2 =G2 | x8 | x8 | x8 |[M:3/4] x6 |] %19

